X:1
T:Christ Is Risen (Russell)
T:Christ Is Risen (Russell)
T:Eucharius Zinckeisen, 1584
T:Arthur Tozer Russell, 1851
T:Public Domain Courtesy of the Cyber Hymnal™
C:Eucharius Zinckeisen, 1584
Z:Public Domain
Z:Courtesy of the Cyber Hymnal™
%%score ( 1 2 ) ( 3 4 )
L:1/8
M:4/4
K:D
V:1 treble 
V:2 treble 
V:3 bass 
V:4 bass 
V:1
 [Fd]4 [Ec]4 | [DA]4 [DB]4 |[M:6/4] [Fd]4 [Ec]2 [DB]4 [DA]2 |[M:4/4] G4 [^DF]4 | [Dd]4 [DB]4 | %5
w: 1.~Christ is|ris- en!|O’er His foes He|reign- eth;|Head o’er|
w: 2.~Christ is|ris- en!|Now to us is|giv- en|Through His|
w: 3.~Christ is|ris- en!|Now His Church in-|her- its|Life e-|
w: 4.~Christ is|ris- en!|Praise and a- do-|ra- tion,|Lord, we|
 [DA]4 [DA]4 |[M:6/4] [Ec]4 [Ec]2 [DA]4 [DB]2 |[M:4/4] G4 [^DF]4 | [EA]4 [DG]2 [D-F]2 | E4 D4 | %10
w: all things,|He all worlds sus-|tain- eth:|Sing hal- le-|lu- *|
w: sor- rows,|Peace, His peace from|Hea- ven!|Sing hal- le-|lu- *|
w: ter- nal|Through her Sav- ior’s|mer- its:|Sing hal- le-|lu- *|
w: bring Thee;|And with ex- ul-|ta- tion,|Sing hal- le-|lu- *|
 [CA]4 [Ec]4 | [Dd]4 [DA]4 | [Ec]2 B2 A2 [DG-]2 | [CG]2 F2 z2 x6 | D8 |] %15
w: Hal- le-|lu- ja!|Christ the Lord is|ris- en!||
w: Hal- le-|lu- ja!|Christ the Lord is|ris- en!||
w: Hal- le-|lu- ja!|Christ the Lord is|ris- en!||
w: Hal- le-|lu- ja!|Christ the Lord is|ris- en!||
V:2
 x8 | x8 |[M:6/4] x12 |[M:4/4] (B,2 E2) x4 | x8 | x8 |[M:6/4] x12 |[M:4/4] (B,2 E2) x4 | x8 | %9
w: |||||||||
w: |||||||||
w: |||||||||
w: |||||||||
 (D2 C2) D4 | x8 | x8 | x2 D4 x2 | x2 D4 (E4 C2) | D8 |] %15
w: jah! * *||||||
w: jah! * *||||||
w: jah! * *||||||
w: jah! * *||||||
V:3
 [D,A,]4 [A,,A,]4 | [G,,A,]4 [G,,G,]4 |[M:6/4] [D,A,]4 [A,,A,]2 [B,,F,]4 [D,F,]2 | %3
[M:4/4] (G,3 A,) [B,,B,]4 | [B,,F,]4 [G,,G,]4 | [D,F,]4 [D,F,]4 | %6
[M:6/4] [A,,A,]4 [A,,A,]2 [D,F,]4 [B,,F,]2 |[M:4/4] (G,3 A,) [B,,B,]4 | [A,,C]4 [B,,B,]2 [D,A,]2 | %9
 [A,,A,]4 [D,F,]4 | [A,,E,]4 [A,,A,]4 | [B,,F,]4 [D,F,]4 | [A,,A,]2 [B,,G,]2 [F,,A,]2 [G,,B,]2 | %13
 [A,,A,]4 [A,,A,]4 x4 | [D,F,]8 |] %15
V:4
 x8 | x8 |[M:6/4] x12 |[M:4/4] E,4 x4 | x8 | x8 |[M:6/4] x12 |[M:4/4] E,4 x4 | x8 | x8 | x8 | x8 | %12
 x8 | x12 | x8 |] %15

